svg/Frame-1261155979.svg

<svg width="49" height="71" viewBox="0 0 49 71" fill="none" xmlns="http://www.w3.org/2000/svg"><rect width="49" height="71" fill="#DADADA"/><mask id="path-2-inside-1_2483_15959" fill="white"><path d="M1239.1 92L-200.898 91.9999L-200.898 -17.0001L1239.1 -17L1239.1 92Z"/></mask><path d="M1239.1 92L-200.898 91.9999L-200.898 -17.0001L1239.1 -17L1239.1 92Z" fill="white"/><rect x="0.0515625" y="0.950012" width="48.1" height="48.1" rx="10.05" fill="#FAFAFA"/><rect x="0.0515625" y="0.950012" width="48.1" height="48.1" rx="10.05" stroke="#D4D4D8" stroke-width="0.1"/><path d="M11.1016 15.7764C11.1016 13.7053 12.7805 12.0264 14.8516 12.0264H19.3516C21.4226 12.0264 23.1016 13.7053 23.1016 15.7764V23.2764C23.1016 25.3474 21.4226 27.0264 19.3516 27.0264H14.8516C12.7805 27.0264 11.1016 25.3474 11.1016 23.2764V15.7764Z" fill="url(#paint0_linear_2483_15959)"/><path d="M11.1016 32.0264C11.1016 30.9218 11.997 30.0264 13.1016 30.0264H21.1016C22.2061 30.0264 23.1016 30.9218 23.1016 32.0264V36.0264C23.1016 37.1309 22.2061 38.0264 21.1016 38.0264H13.1016C11.997 38.0264 11.1016 37.1309 11.1016 36.0264V32.0264Z" fill="url(#paint1_linear_2483_15959)"/><path d="M25.1016 29.7764C25.1016 27.7053 26.7805 26.0264 28.8516 26.0264H33.3516C35.4226 26.0264 37.1016 27.7053 37.1016 29.7764V34.2764C37.1016 36.3474 35.4226 38.0264 33.3516 38.0264H28.8516C26.7805 38.0264 25.1016 36.3474 25.1016 34.2764V29.7764Z" fill="url(#paint2_linear_2483_15959)"/><path d="M25.1016 18.0264C25.1016 14.7127 27.7879 12.0264 31.1016 12.0264C34.4153 12.0264 37.1016 14.7127 37.1016 18.0264C37.1016 21.3401 34.4153 24.0264 31.1016 24.0264C27.7879 24.0264 25.1016 21.3401 25.1016 18.0264Z" fill="url(#paint3_linear_2483_15959)"/><path d="M22.0856 62.832V70.212H21.2336V69.72H14.9696V70.212H14.1176V62.832H17.3696C17.4656 62.448 17.5496 62.04 17.5976 61.62H12.7856V60.78H15.8456C15.6656 60.312 15.4616 59.868 15.2216 59.46L16.0616 59.148C16.3016 59.604 16.5296 60.144 16.7336 60.78H19.3976C19.6736 60.252 19.9136 59.7 20.1176 59.112L20.9696 59.412C20.7776 59.928 20.5736 60.384 20.3456 60.78H23.4176V61.62H18.5096C18.4376 62.04 18.3656 62.448 18.2696 62.832H22.0856ZM14.9696 68.94H21.2336V67.656H14.9696V68.94ZM14.9696 66.888H21.2336V65.64H14.9696V66.888ZM14.9696 64.872H21.2336V63.624H14.9696V64.872ZM33.8096 61.824V67.5H32.9456V62.664H27.2096V67.524H26.3456V61.824H29.3816C29.5016 61.404 29.5856 60.972 29.6456 60.516H24.8216V59.7H35.3816V60.516H30.5576C30.4856 60.972 30.4016 61.416 30.2816 61.824H33.8096ZM30.8936 67.524C32.4416 68.052 33.8576 68.676 35.1296 69.42L34.6016 70.236C33.2336 69.384 31.8416 68.712 30.4136 68.232L30.8936 67.524ZM29.6576 63.384H30.5456V65.292C30.4976 66.612 30.0656 67.656 29.2736 68.448C28.5056 69.18 27.2456 69.744 25.4936 70.152L25.0016 69.384C26.7416 69 27.9536 68.496 28.6376 67.86C29.2856 67.2 29.6216 66.348 29.6576 65.292V63.384Z" fill="black"/><defs><linearGradient id="paint0_linear_2483_15959" x1="17.1016" y1="12.0264" x2="17.1016" y2="27.0264" gradientUnits="userSpaceOnUse"><stop stop-color="#5BF776"/><stop offset="1" stop-color="#0DBC29"/></linearGradient><linearGradient id="paint1_linear_2483_15959" x1="17.1016" y1="30.0177" x2="17.1016" y2="38.0177" gradientUnits="userSpaceOnUse"><stop stop-color="#C873F5"/><stop offset="1" stop-color="#7B33BB"/></linearGradient><linearGradient id="paint2_linear_2483_15959" x1="31.1016" y1="26.0264" x2="31.1016" y2="38.0264" gradientUnits="userSpaceOnUse"><stop stop-color="#FE9D02"/><stop offset="1" stop-color="#F7701D"/></linearGradient><linearGradient id="paint3_linear_2483_15959" x1="31.1016" y1="12.0264" x2="31.1016" y2="24.0264" gradientUnits="userSpaceOnUse"><stop stop-color="#1D6FF2"/><stop offset="1" stop-color="#1AC8FC"/></linearGradient></defs></svg>

<svg fill="none" viewBox="0 0 49 71"><path fill="#DADADA" d="M0 0h49v71H0z"/><path fill="white" d="M1239.1 92H-200.898V-17H1239.1z"/><rect width="48.1" height="48.1" x=".052" y=".95" fill="#FAFAFA" rx="10.05"/><rect width="48.1" height="48.1" x=".052" y=".95" stroke="#D4D4D8" stroke-width=".1" rx="10.05"/><path fill="url(#a)" d="M11.102 15.776a3.75 3.75 0 0 1 3.75-3.75h4.5a3.75 3.75 0 0 1 3.75 3.75v7.5a3.75 3.75 0 0 1-3.75 3.75h-4.5a3.75 3.75 0 0 1-3.75-3.75z"/><path fill="url(#b)" d="M11.102 32.026a2 2 0 0 1 2-2h8a2 2 0 0 1 2 2v4a2 2 0 0 1-2 2h-8a2 2 0 0 1-2-2z"/><path fill="url(#c)" d="M25.102 29.776a3.75 3.75 0 0 1 3.75-3.75h4.5a3.75 3.75 0 0 1 3.75 3.75v4.5a3.75 3.75 0 0 1-3.75 3.75h-4.5a3.75 3.75 0 0 1-3.75-3.75z"/><path fill="url(#d)" d="M25.102 18.026a6 6 0 1 1 12 0 6 6 0 0 1-12 0"/><path fill="black" d="M22.086 62.832v7.38h-.852v-.492H14.97v.492h-.852v-7.38h3.252c.096-.384.18-.792.228-1.212h-4.812v-.84h3.06a9 9 0 0 0-.624-1.32l.84-.312c.24.456.468.996.672 1.632h2.664c.276-.528.516-1.08.72-1.668l.852.3a9 9 0 0 1-.624 1.368h3.072v.84H18.51c-.072.42-.144.828-.24 1.212zM14.97 68.94h6.264v-1.284H14.97zm0-2.052h6.264V65.64H14.97zm0-2.016h6.264v-1.248H14.97zm18.84-3.048V67.5h-.864v-4.836H27.21v4.86h-.864v-5.7h3.036c.12-.42.204-.852.264-1.308h-4.824V59.7h10.56v.816h-4.824c-.072.456-.156.9-.276 1.308zm-2.916 5.7c1.548.528 2.964 1.152 4.236 1.896l-.528.816c-1.368-.852-2.76-1.524-4.188-2.004zm-1.236-4.14h.888v1.908c-.048 1.32-.48 2.364-1.272 3.156-.768.732-2.028 1.296-3.78 1.704l-.492-.768c1.74-.384 2.952-.888 3.636-1.524.648-.66.984-1.512 1.02-2.568z"/><defs><linearGradient id="a" x1="17.102" x2="17.102" y1="12.026" y2="27.026" gradientUnits="userSpaceOnUse"><stop stop-color="#5BF776"/><stop offset="1" stop-color="#0DBC29"/></linearGradient><linearGradient id="b" x1="17.102" x2="17.102" y1="30.018" y2="38.018" gradientUnits="userSpaceOnUse"><stop stop-color="#C873F5"/><stop offset="1" stop-color="#7B33BB"/></linearGradient><linearGradient id="c" x1="31.102" x2="31.102" y1="26.026" y2="38.026" gradientUnits="userSpaceOnUse"><stop stop-color="#FE9D02"/><stop offset="1" stop-color="#F7701D"/></linearGradient><linearGradient id="d" x1="31.102" x2="31.102" y1="12.026" y2="24.026" gradientUnits="userSpaceOnUse"><stop stop-color="#1D6FF2"/><stop offset="1" stop-color="#1AC8FC"/></linearGradient></defs></svg>
